images/scalable/apps/plugin-animation.svg

<?xml version="1.0" encoding="UTF-8" standalone="no"?>
<!-- Created with Inkscape (http://www.inkscape.org/) -->

<svg
   xmlns:dc="http://purl.org/dc/elements/1.1/"
   xmlns:cc="http://creativecommons.org/ns#"
   xmlns:rdf="http://www.w3.org/1999/02/22-rdf-syntax-ns#"
   xmlns:svg="http://www.w3.org/2000/svg"
   xmlns="http://www.w3.org/2000/svg"
   xmlns:xlink="http://www.w3.org/1999/xlink"
   xmlns:sodipodi="http://sodipodi.sourceforge.net/DTD/sodipodi-0.dtd"
   xmlns:inkscape="http://www.inkscape.org/namespaces/inkscape"
   version="1.0"
   width="48"
   height="48"
   id="svg11300"
   inkscape:version="0.47+devel r9459"
   sodipodi:docname="plugin-animation.svg"
   inkscape:output_extension="org.inkscape.output.svg.inkscape">
  <metadata
     id="metadata31">
    <rdf:RDF>
      <cc:Work
         rdf:about="">
        <dc:format>image/svg+xml</dc:format>
        <dc:type
           rdf:resource="http://purl.org/dc/dcmitype/StillImage" />
        <dc:title />
      </cc:Work>
    </rdf:RDF>
  </metadata>
  <sodipodi:namedview
     pagecolor="#ffffff"
     bordercolor="#666666"
     borderopacity="1"
     objecttolerance="10"
     gridtolerance="10"
     guidetolerance="10"
     inkscape:pageopacity="0"
     inkscape:pageshadow="2"
     inkscape:window-width="785"
     inkscape:window-height="565"
     id="namedview29"
     showgrid="false"
     inkscape:zoom="5.1412556"
     inkscape:cx="24"
     inkscape:cy="24"
     inkscape:window-x="321"
     inkscape:window-y="150"
     inkscape:window-maximized="0"
     inkscape:current-layer="svg11300"
     inkscape:snap-global="false" />
  <defs
     id="defs3">
    <radialGradient
       cx="14.287618"
       cy="65.999184"
       r="11.68987"
       fx="14.287618"
       fy="69.694214"
       id="radialGradient7942"
       xlink:href="#linearGradient2300"
       gradientUnits="userSpaceOnUse"
       gradientTransform="matrix(1.399258,-2.234445e-7,8.196178e-8,0.513264,4.365074,4.839285)" />
    <linearGradient
       id="linearGradient2300">
      <stop
         id="stop3572"
         style="stop-color:#000000;stop-opacity:0.32673267"
         offset="0" />
      <stop
         id="stop2304"
         style="stop-color:#000000;stop-opacity:0"
         offset="1" />
    </linearGradient>
    <radialGradient
       cx="10.831259"
       cy="35.225285"
       r="19.465654"
       fx="10.831259"
       fy="35.225285"
       id="radialGradient2152"
       xlink:href="#linearGradient5743"
       gradientUnits="userSpaceOnUse"
       gradientTransform="matrix(-0.8211413,0,0,0.5758684,24.974982,-2.8811775)" />
    <linearGradient
       id="linearGradient5743">
      <stop
         id="stop5745"
         style="stop-color:#fce94f;stop-opacity:1"
         offset="0" />
      <stop
         id="stop5747"
         style="stop-color:#e8bf00;stop-opacity:1"
         offset="1" />
    </linearGradient>
    <linearGradient
       x1="19.49288"
       y1="26.564529"
       x2="33.425938"
       y2="21.769804"
       id="linearGradient2149"
       xlink:href="#linearGradient6480"
       gradientUnits="userSpaceOnUse"
       gradientTransform="matrix(-0.8014062,0,0,0.9356186,36.239532,-5.0498489)" />
    <linearGradient
       id="linearGradient6480">
      <stop
         id="stop6482"
         style="stop-color:#c4a000;stop-opacity:1"
         offset="0" />
      <stop
         id="stop6484"
         style="stop-color:#eeeeec;stop-opacity:0"
         offset="1" />
    </linearGradient>
  </defs>
  <g
     transform="matrix(1.4599885,0,0,1.4599885,0.54581775,-1.445958)"
     id="layer1">
    <path
       inkscape:connector-curvature="0"
       d="m 39.814122,38.714287 a 15.456979,6.7083316 0 1 1 -30.9139574,0 15.456979,6.7083316 0 1 1 30.9139574,0 z"
       transform="matrix(0.7953205,0,0,0.6699199,-1.6512062,-0.5769259)"
       id="path1538"
       style="fill:url(#radialGradient7942);fill-opacity:1;fill-rule:evenodd;stroke:none;marker:none;visibility:visible;display:inline;overflow:visible" />
    <path
       inkscape:connector-curvature="0"
       d="m 17.930774,6.6740146 c 1.814479,0.2305357 1.076883,2.7607186 1.001398,3.9082214 0.687036,1.523939 2.240909,0.859162 3.308839,1.54635 0.452339,0.563197 0.681751,1.300581 1.047661,1.955435 0.843782,1.155838 0.733638,-0.759534 1.404403,-2.108735 0.670765,-1.349203 2.920925,-1.671243 4.404163,-1.365623 1.483238,0.305618 2.770316,1.167937 2.543099,2.731291 -0.218168,1.682441 -1.101207,3.325795 -2.562682,3.823875 -1.559541,0.855053 -4.310413,0.875115 -4.761761,2.428787 -0.365841,1.447257 -2.456104,2.574365 -2.576395,2.505229 -1.391138,0.54703 -1.2685,0.256288 -0.372608,0.848428 0.864378,0.571311 2.134085,0.505471 1.696812,2.078103 -0.435023,1.564534 -4.298046,1.499341 -5.580932,1.495992 -1.283788,-0.0034 -3.565776,0.155315 -4.547754,-1.499004 -0.990701,-1.669015 1.444873,-2.068422 2.49035,-2.492677 C 12.597586,21.594139 10.631394,18.921819 8.6791301,16.535418 7.0550917,14.570474 5.1060148,12.741345 2.7098266,12.386519 1.5556632,12.285958 -0.3740427,12.199865 0.6474016,10.54552 c 3.355154,-1.023545 5.2147623,0.576958 7.3937329,1.871783 1.9425551,1.08781 4.2978515,1.343759 6.2526855,0.148968 0.960644,-0.657291 2.597078,-1.469655 2.867005,-2.48096 -0.526984,-0.980814 -0.350659,-3.1075382 0.769948,-3.4112968 l 1e-6,4e-7 z m 7.540195,9.0784244 c 1.201927,0.05429 3.039449,0.297618 3.486407,-1.410621 -0.05425,-3.638778 -3.177188,-1.089749 -3.486407,1.41062 l 0,1e-6 z"
       id="rect2101"
       style="fill:url(#radialGradient2152);fill-opacity:1;stroke:#be9800;stroke-width:1;stroke-linecap:round;stroke-miterlimit:4;stroke-opacity:1;stroke-dasharray:none" />
    <path
       inkscape:connector-curvature="0"
       d="M 22.517439,17.004763 C 21.346245,15.637538 13.552507,16.557002 11.205836,15.318382 l -1.077768,1.478193 c 1.53734,2.5137 6.495671,10.123306 11.744059,5.22606 1.476002,-2.770725 1.433684,-2.711507 0.645312,-5.017872 l 0,0 z"
       id="rect6477"
       style="opacity:0.37999998;fill:url(#linearGradient2149);fill-opacity:1;stroke:none" />
    <path
       inkscape:connector-curvature="0"
       d="m 16.25141,16.183783 c 2.636026,0.393783 7.965742,-1.285941 6.349968,4.889579 4.028257,-6.117964 -2.902946,-5.547646 -6.349968,-4.889579 z"
       id="rect3072"
       style="opacity:0.68000034;fill:#eeeeec;fill-opacity:1;stroke:none" />
    <path
       inkscape:connector-curvature="0"
       d="m 21.471445,23.182928 c -3.330999,1.712828 -4.751838,0.954947 -7.107847,-0.120202 1.401616,3.014136 5.933746,2.258985 7.107847,0.120202 z"
       id="rect4845"
       style="opacity:0.68000034;fill:#eeeeec;fill-opacity:1;stroke:none" />
    <path
       inkscape:connector-curvature="0"
       d="m 21.885183,12.484117 c -2.273339,2.09165 -4.51887,1.232633 -6.873719,0.16971 -0.361119,0.29947 -0.733912,0.462465 -1.160283,0.677471 2.729588,1.434223 6.022624,2.006942 8.512721,0.0013 -0.141997,-0.375181 -0.293786,-0.569546 -0.478719,-0.848464 z"
       id="path4852"
       style="opacity:0.68000034;fill:#eeeeec;fill-opacity:1;stroke:none" />
    <path
       inkscape:connector-curvature="0"
       d="m 24.90124,13.293982 c 0.327638,-1.859673 7.701912,-3.8654143 4.89837,3.040394 0.844518,-1.052359 1.206974,-2.091533 1.318107,-2.819205 0.365933,-2.396029 -2.713674,-2.897506 -4.701669,-2.285634 -1.089482,0.335324 -1.773481,1.171742 -1.514808,2.064445 z"
       id="path7373"
       style="opacity:0.68000034;fill:#eeeeec;fill-opacity:1;stroke:none" />
    <path
       inkscape:connector-curvature="0"
       d="m 12.520607,20.126185 c -0.309374,-2.591298 -2.5673245,-5.102926 -7.1587802,-7.286214 3.7499336,2.639445 4.8815192,5.337486 7.1587802,7.286214 z"
       id="path7375"
       style="opacity:0.68000034;fill:#eeeeec;fill-opacity:1;stroke:none" />
    <path
       inkscape:connector-curvature="0"
       d="m 20.454242,22.032536 c 1.354057,-0.403882 2.96303,-0.978798 3.56142,-3.015845 -1.668486,1.77674 -2.439064,2.053188 -3.56142,3.015845 z"
       id="path7379"
       style="opacity:0.7;fill:#eeeeec;fill-opacity:1;stroke:none" />
    <path
       inkscape:connector-curvature="0"
       d="m 18.41196,10.663619 c -0.502791,0.344266 -0.818209,0.381214 -0.985744,0.01549 -0.13784,0.505004 -1.228174,1.201205 -1.857976,1.676986 l 1.66984,0.516837 c 0.674214,-0.655823 0.983517,-1.207907 1.23638,-2.068692 l -0.0625,-0.140625 z"
       id="rect7381"
       style="opacity:0.68000034;fill:#eeeeec;fill-opacity:1;stroke:none" />
    <path
       inkscape:connector-curvature="0"
       d="m 17.951537,7.1791699 c -0.556959,0.431156 -0.825614,1.802676 -0.272202,2.8811091 -0.251732,-1.6617161 0.266807,-1.8323311 0.272202,-2.8811091 z"
       id="path8269"
       style="opacity:0.7;fill:#eeeeec;fill-opacity:1;stroke:none" />
    <path
       inkscape:connector-curvature="0"
       d="m 1.003184,10.95535 c 1.9032843,0.278157 1.012015,0.22258 5.8371911,1.289652 C 4.3266156,10.63358 3.3196494,10.415637 1.003184,10.95535 z"
       id="path2155"
       style="opacity:0.68000034;fill:#eeeeec;fill-opacity:1;stroke:none" />
  </g>
</svg>

<?xml version="1.0" encoding="UTF-8" standalone="no"?>
<!-- Created with Inkscape (http://www.inkscape.org/) -->
<svg
   xmlns:svg="http://www.w3.org/2000/svg"
   xmlns="http://www.w3.org/2000/svg"
   xmlns:xlink="http://www.w3.org/1999/xlink"
   version="1.0"
   width="32"
   height="32"
   id="svg11300">
  <defs
     id="defs3">
    <linearGradient
       id="linearGradient2300">
      <stop
         id="stop3572"
         style="stop-color:#000000;stop-opacity:0.32673267"
         offset="0" />
      <stop
         id="stop2304"
         style="stop-color:#000000;stop-opacity:0"
         offset="1" />
    </linearGradient>
    <linearGradient
       id="linearGradient6480">
      <stop
         id="stop6482"
         style="stop-color:#c4a000;stop-opacity:1"
         offset="0" />
      <stop
         id="stop6484"
         style="stop-color:#eeeeec;stop-opacity:0"
         offset="1" />
    </linearGradient>
    <linearGradient
       id="linearGradient5743">
      <stop
         id="stop5745"
         style="stop-color:#fce94f;stop-opacity:1"
         offset="0" />
      <stop
         id="stop5747"
         style="stop-color:#e8bf00;stop-opacity:1"
         offset="1" />
    </linearGradient>
    <linearGradient
       x1="19.49288"
       y1="26.564529"
       x2="33.425938"
       y2="21.769804"
       id="linearGradient2149"
       xlink:href="#linearGradient6480"
       gradientUnits="userSpaceOnUse"
       gradientTransform="matrix(-0.8014062,0,0,0.9356186,36.239532,-5.0498489)" />
    <radialGradient
       cx="10.831259"
       cy="35.225285"
       r="19.465654"
       fx="10.831259"
       fy="35.225285"
       id="radialGradient2152"
       xlink:href="#linearGradient5743"
       gradientUnits="userSpaceOnUse"
       gradientTransform="matrix(-0.8211413,0,0,0.5758684,24.974982,-2.8811775)" />
    <radialGradient
       cx="14.287618"
       cy="65.999184"
       r="11.68987"
       fx="14.287618"
       fy="69.694214"
       id="radialGradient7942"
       xlink:href="#linearGradient2300"
       gradientUnits="userSpaceOnUse"
       gradientTransform="matrix(1.399258,-2.234445e-7,8.196178e-8,0.513264,4.365074,4.839285)" />
  </defs>
  <g
     id="layer1">
    <path
       d="M 39.814122,38.714287 A 15.456979,6.7083316 0 1 1 8.9001646,38.714287 A 15.456979,6.7083316 0 1 1 39.814122,38.714287 z"
       transform="matrix(0.7953205,0,0,0.6699199,-1.6512062,-0.5769259)"
       id="path1538"
       style="fill:url(#radialGradient7942);fill-opacity:1;fill-rule:evenodd;stroke:none;marker:none;marker-start:none;marker-mid:none;marker-end:none;visibility:visible;display:inline;overflow:visible" />
    <path
       d="M 17.930774,6.6740146 C 19.745253,6.9045503 19.007657,9.4347332 18.932172,10.582236 C 19.619208,12.106175 21.173081,11.441398 22.241011,12.128586 C 22.69335,12.691783 22.922762,13.429167 23.288672,14.084021 C 24.132454,15.239859 24.02231,13.324487 24.693075,11.975286 C 25.36384,10.626083 27.614,10.304043 29.097238,10.609663 C 30.580476,10.915281 31.867554,11.7776 31.640337,13.340954 C 31.422169,15.023395 30.53913,16.666749 29.077655,17.164829 C 27.518114,18.019882 24.767242,18.039944 24.315894,19.593616 C 23.950053,21.040873 21.85979,22.167981 21.739499,22.098845 C 20.348361,22.645875 20.470999,22.355133 21.366891,22.947273 C 22.231269,23.518584 23.500976,23.452744 23.063703,25.025376 C 22.62868,26.58991 18.765657,26.524717 17.482771,26.521368 C 16.198983,26.518015 13.916995,26.676683 12.935017,25.022364 C 11.944316,23.353349 14.37989,22.953942 15.425367,22.529687 C 12.597586,21.594139 10.631394,18.921819 8.6791301,16.535418 C 7.0550917,14.570474 5.1060148,12.741345 2.7098266,12.386519 C 1.5556632,12.285958 -0.3740427,12.199865 0.6474016,10.54552 C 4.0025556,9.521975 5.8621639,11.122478 8.0411345,12.417303 C 9.9836896,13.505113 12.338986,13.761062 14.29382,12.566271 C 15.254464,11.90898 16.890898,11.096616 17.160825,10.085311 C 16.633841,9.104497 16.810166,6.9777728 17.930773,6.6740142 L 17.930774,6.6740146 z M 25.470969,15.752439 C 26.672896,15.806726 28.510418,16.050057 28.957376,14.341818 C 28.903122,10.70304 25.780188,13.252069 25.470969,15.752438 L 25.470969,15.752439 z"
       id="rect2101"
       style="fill:url(#radialGradient2152);fill-opacity:1;stroke:#be9800;stroke-width:1;stroke-linecap:round;stroke-miterlimit:4;stroke-opacity:1;stroke-dasharray:none" />
    <path
       d="M 22.517439,17.004763 C 21.346245,15.637538 13.552507,16.557002 11.205836,15.318382 L 10.128068,16.796575 C 11.665408,19.310275 16.623739,26.919881 21.872127,22.022635 C 23.348129,19.25191 23.305811,19.311128 22.517439,17.004763 L 22.517439,17.004763 z"
       id="rect6477"
       style="opacity:0.37999998;fill:url(#linearGradient2149);fill-opacity:1;stroke:none" />
    <path
       d="M 16.25141,16.183783 C 18.887436,16.577566 24.217152,14.897842 22.601378,21.073362 C 26.629635,14.955398 19.698432,15.525716 16.25141,16.183783 z"
       id="rect3072"
       style="opacity:0.68000034;fill:#eeeeec;fill-opacity:1;stroke:none" />
    <path
       d="M 21.471445,23.182928 C 18.140446,24.895756 16.719607,24.137875 14.363598,23.062726 C 15.765214,26.076862 20.297344,25.321711 21.471445,23.182928 z"
       id="rect4845"
       style="opacity:0.68000034;fill:#eeeeec;fill-opacity:1;stroke:none" />
    <path
       d="M 21.885183,12.484117 C 19.611844,14.575767 17.366313,13.71675 15.011464,12.653827 C 14.650345,12.953297 14.277552,13.116292 13.851181,13.331298 C 16.580769,14.765521 19.873805,15.33824 22.363902,13.332581 C 22.221905,12.9574 22.070116,12.763035 21.885183,12.484117 z"
       id="path4852"
       style="opacity:0.68000034;fill:#eeeeec;fill-opacity:1;stroke:none" />
    <path
       d="M 24.90124,13.293982 C 25.228878,11.434309 32.603152,9.4285677 29.79961,16.334376 C 30.644128,15.282017 31.006584,14.242843 31.117717,13.515171 C 31.48365,11.119142 28.404043,10.617665 26.416048,11.229537 C 25.326566,11.564861 24.642567,12.401279 24.90124,13.293982 z"
       id="path7373"
       style="opacity:0.68000034;fill:#eeeeec;fill-opacity:1;stroke:none" />
    <path
       d="M 12.520607,20.126185 C 12.211233,17.534887 9.9532825,15.023259 5.3618268,12.839971 C 9.1117604,15.479416 10.243346,18.177457 12.520607,20.126185 z"
       id="path7375"
       style="opacity:0.68000034;fill:#eeeeec;fill-opacity:1;stroke:none" />
    <path
       d="M 20.454242,22.032536 C 21.808299,21.628654 23.417272,21.053738 24.015662,19.016691 C 22.347176,20.793431 21.576598,21.069879 20.454242,22.032536 z"
       id="path7379"
       style="opacity:0.7;fill:#eeeeec;fill-opacity:1;stroke:none" />
    <path
       d="M 18.41196,10.663619 C 17.909169,11.007885 17.593751,11.044833 17.426216,10.679113 C 17.288376,11.184117 16.198042,11.880318 15.56824,12.356099 L 17.23808,12.872936 C 17.912294,12.217113 18.221597,11.665029 18.47446,10.804244 L 18.41196,10.663619 z"
       id="rect7381"
       style="opacity:0.68000034;fill:#eeeeec;fill-opacity:1;stroke:none" />
    <path
       d="M 17.951537,7.1791699 C 17.394578,7.6103259 17.125923,8.9818459 17.679335,10.060279 C 17.427603,8.3985629 17.946142,8.2279479 17.951537,7.1791699 z"
       id="path8269"
       style="opacity:0.7;fill:#eeeeec;fill-opacity:1;stroke:none" />
    <path
       d="M 1.003184,10.95535 C 2.9064683,11.233507 2.015199,11.17793 6.8403751,12.245002 C 4.3266156,10.63358 3.3196494,10.415637 1.003184,10.95535 z"
       id="path2155"
       style="opacity:0.68000034;fill:#eeeeec;fill-opacity:1;stroke:none" />
  </g>
</svg>
